X:147
T:Saint Anne's Reel
M:2/2
L:1/8
K:D
de||:"D"fedf "G"edcB | "D"A2 FA DAFA | "G"B2 GB EBGB | "D"A2 FA DAFA|
"D"fedf "G"edcB|"D"A2 FA DAFA | "G"B2 ed "A"cABc | "D"dedc d2:|:de|
"D"f2 fe fdef | "G"gagf "Em'"g2 gf|"A"edcB Aceg | "D"b aa^g "A"a2 a=g|
"D"f2 fe fdef | "G"gagf g2 gf | "Emi"edcB "A"ABcd | "D"eddc d2:|
